X:1
T:Coal Creek Troubles
M:6/8
L:1/8
K:G
 B| B2 G D2 G| B2 B G2 G| G2 dc-B B| A3 z2 B|c-A GF A A-| d2 d| d2 d|\
 e2 d GGG| B3 z2 B| B2 G D2 G| B2 B G2 G| B2 d|c-B B| A3 z2 B|c-A A F2 A|\
 d3 d2 d| e2 dB-G F| G3 z2||
